!!!COM: Anon.
!!!OTL: Chinitas Dulces
!! Maria Cadilla de Martinez,
!! Juegos Y Canciones Infantiles de Puerto Rico
!! Talleres Graficos, Cas Baldrich, Brau 93, San Juan, P.R.
!! 1940.  Derechos reservados de la Autora
!! page 110
!! Allegretto
**kern
*clefG2
*k[f#]
*M3/4
{8d
8g
8b
=
4dd
8dd},
{8ee
8dd
8b
=
4g
8g},
{8b
8a
8g
=
4a
8a},
{8cc
8b
8a
=
4g
8g},
{8d
8g
8b
=
4dd
8dd},
{8ee
8dd
8b
=
4g
8g},
{8b
8a
8g
=
4a
8a},
{8cc
8b
8a
=
4g
8r
==
*-
